data/cards/self-care/essential-oil.svg

<svg xmlns="http://www.w3.org/2000/svg" width="512" height="512" fill="none"><g clip-path="url(#a)"><path fill="#E16E7E" d="M376.458 358.161c-10.048-17.404 6.232-39.847 32.907-39.847 26.675 0 42.955 22.443 32.907 39.847l-32.907 56.996-32.907-56.996Z"/><path fill="#E7889D" d="M343.551 415.158c-20.096 0-31.393-25.321-18.055-48.422 13.337-23.101 40.913-25.978 50.962-8.574l32.907 56.996h-65.814Z"/><path fill="#E7889D" d="M475.178 415.158c20.096 0 31.392-25.321 18.055-48.422-13.337-23.101-40.913-25.978-50.962-8.574l-32.907 56.996h65.814Z"/><path fill="#E7889D" d="M376.458 472.153C366.41 489.557 382.689 512 409.364 512c26.675 0 42.955-22.443 32.907-39.847l-32.907-56.996-32.906 56.996Z"/><path fill="#E16E7E" d="M343.551 415.157c-20.096 0-31.393 25.32-18.055 48.421 13.337 23.101 40.913 25.979 50.962 8.575l32.907-56.996h-65.814Z"/><path fill="#E16E7E" d="M475.178 415.157c20.096 0 31.392 25.32 18.055 48.421s-40.913 25.979-50.962 8.575l-32.907-56.996h65.814Z"/><path fill="#F6EE86" d="M418.518 453.678c21.388-5.056 34.627-26.492 29.572-47.88-5.056-21.387-26.492-34.627-47.88-29.571-21.387 5.055-34.627 26.492-29.571 47.879 5.055 21.388 26.492 34.627 47.879 29.572Z"/><path fill="#98CD64" d="M362.447 93.816h-186.91c-7.824 0-14.167-6.343-14.167-14.167v-44.62C161.371 15.683 177.053 0 196.399 0h145.186c19.346 0 35.029 15.683 35.029 35.029v44.62c0 7.824-6.343 14.167-14.167 14.167Z"/><path fill="#6AC65E" d="M233.408 101.315a7.5 7.5 0 0 1-7.5-7.5V46.908a7.5 7.5 0 0 1 15 0v46.908a7.5 7.5 0 0 1-7.5 7.499Zm71.169 0a7.5 7.5 0 0 1-7.5-7.5V46.908a7.5 7.5 0 0 1 15 0v46.908a7.5 7.5 0 0 1-7.5 7.499Z"/><path fill="#E0B799" d="M332.132 107.248V93.816H205.853v13.433c0 9.79-5.874 18.606-14.889 22.422-36.636 15.507-62.344 51.781-62.344 94.068v236.335c0 28.679 23.249 51.927 51.927 51.927h176.889c28.679 0 51.927-23.249 51.927-51.927V223.738c0-42.287-25.707-78.56-62.344-94.068-9.013-3.816-14.887-12.632-14.887-22.422Z"/><path fill="#D1986F" d="M200.801 122.077a24.411 24.411 0 0 1-9.836 7.594c-36.636 15.507-62.344 51.781-62.344 94.068v236.335c0 28.679 23.249 51.927 51.927 51.927h81.209c-49.686-56.286-67.314-288.917-60.956-389.924Z"/><path fill="#FBF1CF" d="M128.62 236.142h280.744v178.49H128.62v-178.49Z"/><path fill="#F5E2A2" d="M128.62 236.142v178.49h95.185c-11.762-53.659-19.021-119.277-22.261-178.49H128.62Z"/><path fill="#98CD64" d="M189.856 236.142c0 28.633 35.431 51.845 79.136 51.845 43.706 0 79.137-23.212 79.137-51.845H189.856Z"/><path fill="#6AC65E" d="M201.549 236.142h-11.693c0 10.761 5.006 20.756 13.574 29.041a1455.544 1455.544 0 0 1-1.881-29.041Z"/><path fill="#8DAEE1" d="M269.108 373.312c19.239-.06 35.448-15.362 36.266-34.584.958-22.52-16.024-44.716-27.116-56.724-5.009-5.422-13.547-5.4-18.554.024-10.791 11.687-27.133 32.996-27.133 54.864.001 20.153 16.37 36.483 36.537 36.42Z"/><path fill="#D1986F" d="M268.992 481.329a7.5 7.5 0 0 1-7.5-7.5v-6.82a7.5 7.5 0 0 1 15 0v6.82a7.5 7.5 0 0 1-7.5 7.5Z"/><path fill="#E0B799" d="M192.635 481.329a7.5 7.5 0 0 1-7.5-7.5v-6.82a7.5 7.5 0 0 1 15 0v6.82a7.5 7.5 0 0 1-7.5 7.5Z"/><path fill="#D1986F" d="M345.35 481.329a7.5 7.5 0 0 1-7.5-7.5v-6.82a7.5 7.5 0 0 1 15 0v6.82a7.5 7.5 0 0 1-7.5 7.5Z"/><path fill="#E7889D" d="M69.729 160.583c-10.048-17.404 6.232-39.847 32.907-39.847 26.675 0 42.955 22.443 32.907 39.847l-32.907 56.996-32.907-56.996Z"/><path fill="#E16E7E" d="M36.822 217.579c-20.096 0-31.392-25.32-18.055-48.421s40.913-25.979 50.962-8.574l32.907 56.996H36.822v-.001Z"/><path fill="#E16E7E" d="M168.449 217.579c20.096 0 31.393-25.32 18.055-48.421-13.337-23.101-40.913-25.979-50.962-8.574l-32.907 56.996h65.814v-.001Z"/><path fill="#E16E7E" d="M69.729 274.574c-10.048 17.404 6.232 39.847 32.907 39.847 26.675 0 42.955-22.443 32.907-39.847l-32.907-56.996-32.907 56.996Z"/><path fill="#E7889D" d="M36.822 217.579c-20.096 0-31.392 25.32-18.055 48.421s40.913 25.979 50.962 8.575l32.907-56.996H36.822Z"/><path fill="#E7889D" d="M168.449 217.579c20.096 0 31.393 25.32 18.055 48.421-13.337 23.101-40.913 25.979-50.962 8.575l-32.907-56.996h65.814Z"/><path fill="#F6EE86" d="M130.74 245.705c15.54-15.541 15.54-40.737 0-56.277-15.541-15.541-40.737-15.541-56.277 0-15.54 15.54-15.54 40.736 0 56.277 15.54 15.541 40.736 15.541 56.277 0Z"/></g><defs><clipPath id="a"><path fill="#fff" d="M0 0h512v512H0z"/></clipPath></defs></svg>

<svg width="512" height="512" viewBox="0 0 512 512" fill="none" xmlns="http://www.w3.org/2000/svg">
<g clip-path="url(#clip0)">
<path d="M376.458 358.161C366.41 340.757 382.69 318.314 409.365 318.314C436.04 318.314 452.32 340.757 442.272 358.161L409.365 415.157L376.458 358.161Z" fill="#E16E7E"/>
<path d="M343.551 415.158C323.455 415.158 312.158 389.837 325.496 366.736C338.833 343.635 366.409 340.758 376.458 358.162L409.365 415.158H343.551Z" fill="#E7889D"/>
<path d="M475.178 415.158C495.274 415.158 506.57 389.837 493.233 366.736C479.896 343.635 452.32 340.758 442.271 358.162L409.364 415.158H475.178Z" fill="#E7889D"/>
<path d="M376.458 472.153C366.41 489.557 382.689 512 409.364 512C436.039 512 452.319 489.557 442.271 472.153L409.364 415.157L376.458 472.153Z" fill="#E7889D"/>
<path d="M343.551 415.157C323.455 415.157 312.158 440.477 325.496 463.578C338.833 486.679 366.409 489.557 376.458 472.153L409.365 415.157H343.551Z" fill="#E16E7E"/>
<path d="M475.178 415.157C495.274 415.157 506.57 440.477 493.233 463.578C479.896 486.679 452.32 489.557 442.271 472.153L409.364 415.157H475.178Z" fill="#E16E7E"/>
<path d="M418.518 453.678C439.906 448.622 453.145 427.186 448.09 405.798C443.034 384.411 421.598 371.171 400.21 376.227C378.823 381.282 365.583 402.719 370.639 424.106C375.694 445.494 397.131 458.733 418.518 453.678Z" fill="#F6EE86"/>
<path d="M362.447 93.816H175.537C167.713 93.816 161.37 87.473 161.37 79.649V35.029C161.371 15.683 177.053 0 196.399 0H341.585C360.931 0 376.614 15.683 376.614 35.029V79.649C376.614 87.473 370.271 93.816 362.447 93.816Z" fill="#98CD64"/>
<path d="M233.408 101.315C229.266 101.315 225.908 97.9572 225.908 93.8152V46.9082C225.908 42.7662 229.266 39.4082 233.408 39.4082C237.55 39.4082 240.908 42.7662 240.908 46.9082V93.8162C240.908 97.9582 237.55 101.315 233.408 101.315Z" fill="#6AC65E"/>
<path d="M304.577 101.315C300.435 101.315 297.077 97.9572 297.077 93.8152V46.9082C297.077 42.7662 300.435 39.4082 304.577 39.4082C308.719 39.4082 312.077 42.7662 312.077 46.9082V93.8162C312.077 97.9582 308.719 101.315 304.577 101.315Z" fill="#6AC65E"/>
<path d="M332.132 107.248V93.8164H205.853V107.249C205.853 117.039 199.979 125.855 190.964 129.671C154.328 145.178 128.62 181.452 128.62 223.739V460.074C128.62 488.753 151.869 512.001 180.547 512.001H357.436C386.115 512.001 409.363 488.752 409.363 460.074V223.738C409.363 181.451 383.656 145.178 347.019 129.67C338.006 125.854 332.132 117.038 332.132 107.248Z" fill="#E0B799"/>
<path d="M200.801 122.077C198.284 125.346 194.929 127.993 190.965 129.671C154.329 145.178 128.621 181.452 128.621 223.739V460.074C128.621 488.753 151.87 512.001 180.548 512.001H261.757C212.071 455.715 194.443 223.084 200.801 122.077Z" fill="#D1986F"/>
<path d="M128.62 236.142H409.364V414.632H128.62V236.142Z" fill="#FBF1CF"/>
<path d="M128.62 236.142V414.632H223.805C212.043 360.973 204.784 295.355 201.544 236.142H128.62Z" fill="#F5E2A2"/>
<path d="M189.856 236.142C189.856 264.775 225.287 287.987 268.992 287.987C312.698 287.987 348.129 264.775 348.129 236.142H189.856Z" fill="#98CD64"/>
<path d="M201.549 236.142H189.856C189.856 246.903 194.862 256.898 203.43 265.183C202.697 255.386 202.071 245.682 201.549 236.142Z" fill="#6AC65E"/>
<path d="M269.108 373.312C288.347 373.252 304.556 357.95 305.374 338.728C306.332 316.208 289.35 294.012 278.258 282.004C273.249 276.582 264.711 276.604 259.704 282.028C248.913 293.715 232.571 315.024 232.571 336.892C232.572 357.045 248.941 373.375 269.108 373.312Z" fill="#8DAEE1"/>
<path d="M268.992 481.329C264.85 481.329 261.492 477.971 261.492 473.829V467.009C261.492 462.867 264.85 459.509 268.992 459.509C273.134 459.509 276.492 462.867 276.492 467.009V473.829C276.492 477.971 273.134 481.329 268.992 481.329Z" fill="#D1986F"/>
<path d="M192.635 481.329C188.493 481.329 185.135 477.971 185.135 473.829V467.009C185.135 462.867 188.493 459.509 192.635 459.509C196.777 459.509 200.135 462.867 200.135 467.009V473.829C200.135 477.971 196.777 481.329 192.635 481.329Z" fill="#E0B799"/>
<path d="M345.35 481.329C341.208 481.329 337.85 477.971 337.85 473.829V467.009C337.85 462.867 341.208 459.509 345.35 459.509C349.492 459.509 352.85 462.867 352.85 467.009V473.829C352.85 477.971 349.492 481.329 345.35 481.329Z" fill="#D1986F"/>
<path d="M69.7289 160.583C59.6809 143.179 75.9609 120.736 102.636 120.736C129.311 120.736 145.591 143.179 135.543 160.583L102.636 217.579L69.7289 160.583Z" fill="#E7889D"/>
<path d="M36.822 217.579C16.726 217.579 5.42995 192.259 18.767 169.158C32.104 146.057 59.68 143.179 69.729 160.584L102.636 217.58H36.822V217.579Z" fill="#E16E7E"/>
<path d="M168.449 217.579C188.545 217.579 199.842 192.259 186.504 169.158C173.167 146.057 145.591 143.179 135.542 160.584L102.635 217.58H168.449V217.579Z" fill="#E16E7E"/>
<path d="M69.7289 274.574C59.6809 291.978 75.9609 314.421 102.636 314.421C129.311 314.421 145.591 291.978 135.543 274.574L102.636 217.578L69.7289 274.574Z" fill="#E16E7E"/>
<path d="M36.822 217.579C16.726 217.579 5.42995 242.899 18.767 266C32.104 289.101 59.68 291.979 69.729 274.575L102.636 217.579H36.822Z" fill="#E7889D"/>
<path d="M168.449 217.579C188.545 217.579 199.842 242.899 186.504 266C173.167 289.101 145.591 291.979 135.542 274.575L102.635 217.579H168.449Z" fill="#E7889D"/>
<path d="M130.74 245.705C146.28 230.164 146.28 204.968 130.74 189.428C115.199 173.887 90.0031 173.887 74.4626 189.428C58.9221 204.968 58.9221 230.164 74.4626 245.705C90.0031 261.246 115.199 261.246 130.74 245.705Z" fill="#F6EE86"/>
</g>
<defs>
<clipPath id="clip0">
<rect width="512" height="512" fill="white"/>
</clipPath>
</defs>
</svg>
